X: 18114
T: Humours Of Bandon, The
R: jig
M: 6/8
K: Dmajor
|:A,2 D DCD|EF/E/D CDE|FDD {F}DCD|E/F/AB cd/c/B|
A2B GB/G/E|{G}FED CDE|FAF GEC|1 DD/D/D DCB,:|2 DD/D/D DE/F/G||
|:A2d e/d/cd|ef/e/d cde|de/d/c A2B|{d}=cBA GAB|
AB/A/G FGA|GA/G/F D2E|{G}FED {B,}CD/C/B,|CD/C/B, A,DB,|
A,DA, DCD|EF/E/D CDE|FDD {F}DCD|E/F/AB cd/c/B|
A2B GB/G/E|{G}FED CDE|FAF GEC|1 DD/D/D DE/F/G:|2 DD/D/D DCB,||

